dist/svgs/unicons/line/padlock.svg

<svg xmlns="http://www.w3.org/2000/svg" viewBox="0 0 24 24"><path d="M12 13a1.49 1.49 0 00-1 2.61V17a1 1 0 002 0v-1.39A1.49 1.49 0 0012 13zm5-4V7A5 5 0 007 7v2a3 3 0 00-3 3v7a3 3 0 003 3h10a3 3 0 003-3v-7a3 3 0 00-3-3zM9 7a3 3 0 016 0v2H9zm9 12a1 1 0 01-1 1H7a1 1 0 01-1-1v-7a1 1 0 011-1h10a1 1 0 011 1z"/></svg>

<svg xmlns="http://www.w3.org/2000/svg" viewBox="0 0 24 24"><path d="M12,13a1.49,1.49,0,0,0-1,2.61V17a1,1,0,0,0,2,0V15.61A1.49,1.49,0,0,0,12,13Zm5-4V7A5,5,0,0,0,7,7V9a3,3,0,0,0-3,3v7a3,3,0,0,0,3,3H17a3,3,0,0,0,3-3V12A3,3,0,0,0,17,9ZM9,7a3,3,0,0,1,6,0V9H9Zm9,12a1,1,0,0,1-1,1H7a1,1,0,0,1-1-1V12a1,1,0,0,1,1-1H17a1,1,0,0,1,1,1Z"/></svg>
